app/dist/common/images/viveo-on-nm.svg

<svg fill="none" height="18" width="18" xmlns="http://www.w3.org/2000/svg"><path d="m0 0h18v18h-18z" fill="#f0f3fa"/><path clip-rule="evenodd" d="m5 13h1v-5.6l2.42 5.6 2.58-5.6v5.6h2v-6.948c0-.166-.27-1.051-1.428-1.051s-1.346.747-1.346.747l-1.226 2.851-1.199-2.796s-.188-.83-1.481-.802c-1.293.027-1.32 1.051-1.32 1.051z" fill="#008843" fill-rule="evenodd"/><path d="m5 13h1v-2h-1zm8-2h-2v2h2zm-3.66 0h-1.777l.858 2z" fill="#6bba91"/></svg>

<!-- by TradingView --><svg width="18" height="18" fill="none" xmlns="http://www.w3.org/2000/svg"><path fill="#F0F3FA" d="M0 0h18v18H0z"/><path fill-rule="evenodd" clip-rule="evenodd" d="M5 13h1V7.4L8.42 13 11 7.4V13h2V6.052c0-.166-.27-1.051-1.428-1.051s-1.346.747-1.346.747L9 8.599 7.801 5.803s-.188-.83-1.481-.802C5.027 5.028 5 6.052 5 6.052V13Z" fill="#008843"/><path d="M5 13h1v-2H5v2ZM13 11h-2v2h2v-2ZM9.34 11H7.563l.858 2 .919-2Z" fill="#6BBA91"/></svg>
